assets/img/icons_pokemon/electric.svg

<svg width="256" height="256" viewBox="0 0 256 256" fill="none" xmlns="http://www.w3.org/2000/svg">
<g clip-path="url(#clip0_57_721)">
<path d="M128 256C198.692 256 256 198.692 256 128C256 57.3075 198.692 0 128 0C57.3075 0 0 57.3075 0 128C0 198.692 57.3075 256 128 256Z" fill="#DFBC28"/>
<path d="M112.94 205.87C108.59 204.8 109.85 201.66 110.53 199.44C113.61 189.29 116.74 179.14 120.35 169.16C122.68 162.71 122.31 158.21 115.89 153.96C105.09 146.81 95.0901 138.48 84.5301 130.96C77.9201 126.25 76.6101 120.93 80.7301 113.94C92.3701 94.2002 103.95 74.4502 117.41 55.8401C122.56 48.7201 127.68 47.7302 135.06 52.3102C146.88 59.6502 158.97 66.5601 171.1 73.3801C178.19 77.3701 178.69 81.5302 173.16 87.4402C164.97 96.1802 157.54 105.64 149.14 114.17C143.91 119.48 145.01 122.93 150.08 127.1C156.49 132.38 162.6 138.04 168.82 143.56C172.5 146.83 172.86 150.12 169.06 153.69C151.36 170.33 133.71 187.02 116.02 203.67C115.08 204.56 113.9 205.2 112.94 205.88V205.87Z" fill="white"/>
</g>
<defs>
<clipPath id="clip0_57_721">
<rect width="256" height="256" fill="white"/>
</clipPath>
</defs>
</svg>

<?xml version="1.0" encoding="UTF-8"?>
<svg id="Layer_1" data-name="Layer 1" xmlns="http://www.w3.org/2000/svg" viewBox="0 0 256 256">
  <defs>
    <style>
      .cls-1 {
        fill: #fff;
      }

      .cls-2 {
        fill: #dfbc28;
      }
    </style>
  </defs>
  <circle class="cls-2" cx="128" cy="128" r="128"/>
  <path class="cls-1" d="M112.94,205.87c-4.35-1.07-3.09-4.21-2.41-6.43,3.08-10.15,6.21-20.3,9.82-30.28,2.33-6.45,1.96-10.95-4.46-15.2-10.8-7.15-20.8-15.48-31.36-23-6.61-4.71-7.92-10.03-3.8-17.02,11.64-19.74,23.22-39.49,36.68-58.1,5.15-7.12,10.27-8.11,17.65-3.53,11.82,7.34,23.91,14.25,36.04,21.07,7.09,3.99,7.59,8.15,2.06,14.06-8.19,8.74-15.62,18.2-24.02,26.73-5.23,5.31-4.13,8.76,.94,12.93,6.41,5.28,12.52,10.94,18.74,16.46,3.68,3.27,4.04,6.56,.24,10.13-17.7,16.64-35.35,33.33-53.04,49.98-.94,.89-2.12,1.53-3.08,2.21Z"/>
</svg>
